.local/share/icons/Gruvbox-Plus-Dark/actions/16/labplot-shift-left-x.svg

<svg xmlns="http://www.w3.org/2000/svg" width="16" height="16" viewBox="0 0 16 16">
 <defs>
  <style id="current-color-scheme" type="text/css">
   .ColorScheme-Text { color:#ebdbb2; } .ColorScheme-Highlight { color:#458588; }
  </style>
 </defs>
 <path style="fill:currentColor" class="ColorScheme-Text" d="M 5 0 L 3 4 L 7 4 L 5 0 z M 9 6 L 9 10 L 13 8 L 9 6 z M 5 7 C 4.446 7 4 7.446 4 8 C 4 8.554 4.446 9 5 9 C 5.554 9 6 8.554 6 8 C 6 7.446 5.554 7 5 7 z M 3 12 L 5 16 L 7 12 L 3 12 z"/>
</svg>

<svg width="16" height="16" version="1.1" xmlns="http://www.w3.org/2000/svg">
  <defs>
    <style id="current-color-scheme" type="text/css">.ColorScheme-Text { color:#ebdbb2; } .ColorScheme-Highlight { color:#458588; }</style>
  </defs>
  <path class="ColorScheme-Text" d="m5 0-2 4h4l-2-4zm0 6a2 2 0 0 0-2 2 2 2 0 0 0 2 2 2 2 0 0 0 2-2 2 2 0 0 0-2-2zm4 0v4l4-2-4-2zm-6 6 2 4 2-4h-4z" fill="currentColor"/>
</svg>
